X: 40131
T: Tie The Ribbons
R: reel
M: 4/4
K: Eminor
dc|:BE ~E2 GBAG|DFAc BGAF|GFEF GAB^c|1 ~d2 df efd=c|2 ~d2 dB e3 f||
|:gfef gbag|fd ~d2 dfaf|gfef (3gab af|gefd Beef|
gzef gbaf|fd ~d2 dfaf|Beaf gfe^c|~d2 dB efd=c:|

